Costumes/Human_09-wheel_front.svg

<?xml version="1.0" encoding="UTF-8" standalone="no"?>
<svg
   id="Layer_2"
   data-name="Layer 2"
   viewBox="0 0 68.075293 69.075583"
   version="1.1"
   sodipodi:docname="Human_09-wheel_front.svg"
   width="68.075294"
   height="69.075584"
   xmlns:inkscape="http://www.inkscape.org/namespaces/inkscape"
   xmlns:sodipodi="http://sodipodi.sourceforge.net/DTD/sodipodi-0.dtd"
   xmlns="http://www.w3.org/2000/svg"
   xmlns:svg="http://www.w3.org/2000/svg">
  <sodipodi:namedview
     id="namedview18"
     pagecolor="#ffffff"
     bordercolor="#000000"
     borderopacity="0.25"
     inkscape:showpageshadow="2"
     inkscape:pageopacity="0.0"
     inkscape:pagecheckerboard="0"
     inkscape:deskcolor="#d1d1d1" />
  <defs
     id="defs4">
    <style
       id="style2">
      .cls-1 {
        fill: #d8d8d8;
      }

      .cls-2 {
        fill: #2b2b2b;
      }

      .cls-3 {
        fill: #959595;
      }
    </style>
  </defs>
  <g
     id="Layer_1-2"
     data-name="Layer 1"
     transform="translate(0.00102582,-0.00469256)">
    <path
       d="M 29.01,0.33 C 74.49,-5.15 82.61,60.31 40.87,68.3 -6.07,77.29 -15.95,5.74 29.01,0.33 Z M 29,6.07 C -11.76,11.56 5.18,78.25 45.72,60.92 75.39,48.23 64.01,1.35 29,6.07 Z"
       id="path6" />
    <path
       class="cls-2"
       d="M 29,6.07 C 64.01,1.35 75.39,48.23 45.72,60.92 5.18,78.25 -11.76,11.56 29,6.07 Z m 0.02,5.77 C 15.63,13.53 7.1,27.44 10.26,40.26 14.32,56.69 28.45,62.22 43.95,56.99 59.05,51.89 62.1,31.74 52.9,19.93 46.51,11.72 39.11,10.57 29.02,11.84 Z"
       id="path8" />
    <path
       d="m 29.02,11.84 c 10.1,-1.27 17.49,-0.12 23.88,8.09 9.2,11.81 6.16,31.96 -8.95,37.06 C 28.45,62.22 14.32,56.68 10.26,40.26 7.09,27.44 15.62,13.53 29.02,11.84 Z m 0.87,4.11 c -2,-0.11 -8.98,2.08 -9.32,4.04 -0.08,0.45 5.29,6.96 5.7,7.16 0.18,0.09 3.62,-0.94 3.62,-1.13 z M 45,18.84 c -3.58,-1 -6.93,-3.22 -10.79,-2.89 0.31,2.81 -1.36,10.38 2.68,10.68 2.14,0.16 8.74,-6.92 8.11,-7.79 z m 7.91,14.38 c 0.59,-0.65 -2.54,-10.09 -3.95,-10.06 -8.44,7.19 -6.43,9.08 3.95,10.06 z m -30.32,0.62 c 2.28,-1.45 -2.68,-6.56 -3.89,-7.77 -0.46,-0.46 -1.03,-1.29 -1.74,-0.76 -0.65,0.48 -2.45,7.32 -2.89,8.62 1.79,-0.37 7.46,0.59 8.52,-0.09 z m 6.58,-2.78 c -2,0.99 -2.54,2.4 -2.16,4.64 0.83,4.91 10.91,5.71 11.52,0.4 0.57,-4.98 -5.29,-7.04 -9.35,-5.04 z m 23.75,7.2 -8.63,-1.45 c -2.14,4.79 1.75,8.21 5.74,10.07 z m -38.14,0 3.96,8.61 c 7.33,-5.73 5.58,-9.75 -3.96,-8.61 z m 30.94,12.93 c 0.57,-0.77 -5.04,-6.54 -5.74,-6.85 -0.5,-0.22 -3.38,1.04 -3.49,1.22 -0.79,1.25 0.71,5.94 -0.84,7.79 z m -14.43,-5.7 c -0.15,-0.15 -3.68,-0.66 -4.26,-0.42 -1.2,0.49 -3.63,4.13 -5.04,5.06 -0.02,1.49 7.68,3.79 9.34,3.24 -0.24,-1.35 0.36,-7.48 -0.04,-7.88 z"
       id="path10" />
    <path
       class="cls-3"
       d="m 38.53,36.1 c -0.61,5.32 -10.68,4.52 -11.52,-0.4 -0.38,-2.24 0.16,-3.65 2.16,-4.64 3.02,1.7 6.14,3.38 9.35,5.04 z"
       id="path12" />
    <path
       class="cls-1"
       d="m 38.53,36.1 c -1.43,1.25 -1.87,0.19 -2.94,-0.26 -2.33,-0.98 -6.95,-1.79 -6.41,-4.78 4.07,-2.01 9.93,0.06 9.35,5.04 z"
       id="path14" />
  </g>
</svg>

<?xml version="1.0" encoding="UTF-8"?>
<svg id="Layer_2" data-name="Layer 2" xmlns="http://www.w3.org/2000/svg" viewBox="0 0 68.08 69.08">
  <defs>
    <style>
      .cls-1 {
        fill: #d8d8d8;
      }

      .cls-2 {
        fill: #2b2b2b;
      }

      .cls-3 {
        fill: #959595;
      }
    </style>
  </defs>
  <g id="Layer_1-2" data-name="Layer 1">
    <path d="M29.01.33c45.48-5.48,53.6,59.98,11.86,67.97C-6.07,77.29-15.95,5.74,29.01.33ZM29,6.07C-11.76,11.56,5.18,78.25,45.72,60.92,75.39,48.23,64.01,1.35,29,6.07Z"/>
    <path class="cls-2" d="M29,6.07c35.01-4.72,46.39,42.16,16.72,54.85C5.18,78.25-11.76,11.56,29,6.07ZM29.02,11.84c-13.39,1.69-21.92,15.6-18.76,28.42,4.06,16.43,18.19,21.96,33.69,16.73,15.1-5.1,18.15-25.25,8.95-37.06-6.39-8.21-13.79-9.36-23.88-8.09Z"/>
    <path d="M29.02,11.84c10.1-1.27,17.49-.12,23.88,8.09,9.2,11.81,6.16,31.96-8.95,37.06-15.5,5.23-29.63-.31-33.69-16.73-3.17-12.82,5.36-26.73,18.76-28.42ZM29.89,15.95c-2-.11-8.98,2.08-9.32,4.04-.08.45,5.29,6.96,5.7,7.16.18.09,3.62-.94,3.62-1.13v-10.07ZM45,18.84c-3.58-1-6.93-3.22-10.79-2.89.31,2.81-1.36,10.38,2.68,10.68,2.14.16,8.74-6.92,8.11-7.79ZM52.91,33.22c.59-.65-2.54-10.09-3.95-10.06-8.44,7.19-6.43,9.08,3.95,10.06ZM22.59,33.84c2.28-1.45-2.68-6.56-3.89-7.77-.46-.46-1.03-1.29-1.74-.76-.65.48-2.45,7.32-2.89,8.62,1.79-.37,7.46.59,8.52-.09ZM29.17,31.06c-2,.99-2.54,2.4-2.16,4.64.83,4.91,10.91,5.71,11.52.4.57-4.98-5.29-7.04-9.35-5.04ZM52.92,38.26l-8.63-1.45c-2.14,4.79,1.75,8.21,5.74,10.07l2.89-8.62ZM14.78,38.26l3.96,8.61c7.33-5.73,5.58-9.75-3.96-8.61ZM45.72,51.19c.57-.77-5.04-6.54-5.74-6.85-.5-.22-3.38,1.04-3.49,1.22-.79,1.25.71,5.94-.84,7.79l10.07-2.16ZM31.29,45.49c-.15-.15-3.68-.66-4.26-.42-1.2.49-3.63,4.13-5.04,5.06-.02,1.49,7.68,3.79,9.34,3.24-.24-1.35.36-7.48-.04-7.88Z"/>
    <path class="cls-3" d="M38.53,36.1c-.61,5.32-10.68,4.52-11.52-.4-.38-2.24.16-3.65,2.16-4.64,3.02,1.7,6.14,3.38,9.35,5.04Z"/>
    <path class="cls-1" d="M38.53,36.1c-1.43,1.25-1.87.19-2.94-.26-2.33-.98-6.95-1.79-6.41-4.78,4.07-2.01,9.93.06,9.35,5.04Z"/>
  </g>
</svg>
